images/icons/labels/svg/app.svg

<svg width="20" height="15" viewBox="0 0 20 15" fill="none" xmlns="http://www.w3.org/2000/svg">
<path d="M19.6093 7.11953C19.5804 7.05625 18.896 5.53672 17.3843 4.025C15.3617 2.00547 12.8124 0.9375 9.99994 0.9375C7.18744 0.9375 4.63822 2.00547 2.61791 4.025C1.10619 5.53672 0.421815 7.05625 0.390565 7.11953C0.337638 7.23953 0.310303 7.36924 0.310303 7.50039C0.310303 7.63154 0.337638 7.76125 0.390565 7.88125C0.419472 7.94531 1.10385 9.46406 2.61635 10.9758C4.63822 12.9953 7.18744 14.0625 9.99994 14.0625C12.8124 14.0625 15.3617 12.9953 17.3812 10.9758C18.8937 9.46406 19.5781 7.94531 19.607 7.88125C19.6603 7.76142 19.688 7.63179 19.6884 7.50064C19.6888 7.36949 19.6619 7.23969 19.6093 7.11953ZM16.0109 9.69766C14.3335 11.3492 12.3117 12.1875 9.99994 12.1875C7.68822 12.1875 5.66635 11.3492 3.99135 9.69687C3.33224 9.04471 2.76528 8.30559 2.30619 7.5C2.76542 6.69474 3.33236 5.95589 3.99135 5.30391C5.66713 3.65078 7.68822 2.8125 9.99994 2.8125C12.3117 2.8125 14.3328 3.65078 16.0085 5.30391C16.6676 5.95583 17.2345 6.69469 17.6937 7.5C17.2345 8.30554 16.6676 9.04465 16.0085 9.69687L16.0109 9.69766ZM9.99994 4.0625C9.32007 4.0625 8.65546 4.26411 8.09017 4.64182C7.52487 5.01954 7.08428 5.5564 6.8241 6.18453C6.56393 6.81265 6.49585 7.50381 6.62849 8.17062C6.76113 8.83743 7.08852 9.44994 7.56926 9.93068C8.05 10.4114 8.66251 10.7388 9.32932 10.8714C9.99613 11.0041 10.6873 10.936 11.3154 10.6758C11.9435 10.4157 12.4804 9.97507 12.8581 9.40977C13.2358 8.84448 13.4374 8.17987 13.4374 7.5C13.4364 6.58864 13.0739 5.71489 12.4295 5.07046C11.785 4.42603 10.9113 4.06353 9.99994 4.0625ZM9.99994 9.0625C9.69091 9.0625 9.38881 8.97086 9.13186 8.79917C8.87491 8.62748 8.67464 8.38345 8.55638 8.09794C8.43812 7.81243 8.40717 7.49827 8.46746 7.19517C8.52775 6.89208 8.67657 6.61367 8.89509 6.39515C9.11361 6.17663 9.39202 6.02781 9.69511 5.96752C9.99821 5.90723 10.3124 5.93818 10.5979 6.05644C10.8834 6.1747 11.1274 6.37497 11.2991 6.63192C11.4708 6.88887 11.5624 7.19097 11.5624 7.5C11.5624 7.9144 11.3978 8.31183 11.1048 8.60485C10.8118 8.89788 10.4143 9.0625 9.99994 9.0625Z" fill="#F5F5F5"/>
</svg>

<?xml version="1.0" encoding="utf-8"?>
<!-- Generator: Adobe Illustrator 27.7.0, SVG Export Plug-In . SVG Version: 6.00 Build 0)  -->
<svg version="1.1" id="Layer_1" xmlns="http://www.w3.org/2000/svg" xmlns:xlink="http://www.w3.org/1999/xlink" x="0px" y="0px"
	 viewBox="0 0 20 15" style="enable-background:new 0 0 20 15;" xml:space="preserve">
<style type="text/css">
	.st0{fill:#F5F5F5;}
</style>
<path class="st0" d="M19.6,7.1c0-0.1-0.7-1.6-2.2-3.1c-2-2-4.6-3.1-7.4-3.1C7.2,0.9,4.6,2,2.6,4c-1.5,1.5-2.2,3-2.2,3.1
	C0.3,7.2,0.3,7.4,0.3,7.5c0,0.1,0,0.3,0.1,0.4c0,0.1,0.7,1.6,2.2,3.1c2,2,4.6,3.1,7.4,3.1c2.8,0,5.4-1.1,7.4-3.1
	c1.5-1.5,2.2-3,2.2-3.1c0.1-0.1,0.1-0.2,0.1-0.4C19.7,7.4,19.7,7.2,19.6,7.1z M16,9.7c-1.7,1.7-3.7,2.5-6,2.5c-2.3,0-4.3-0.8-6-2.5
	C3.3,9,2.8,8.3,2.3,7.5C2.8,6.7,3.3,6,4,5.3c1.7-1.7,3.7-2.5,6-2.5c2.3,0,4.3,0.8,6,2.5c0.7,0.7,1.2,1.4,1.7,2.2
	C17.2,8.3,16.7,9,16,9.7L16,9.7z M10,4.1c-0.7,0-1.3,0.2-1.9,0.6C7.5,5,7.1,5.6,6.8,6.2c-0.3,0.6-0.3,1.3-0.2,2s0.5,1.3,0.9,1.8
	c0.5,0.5,1.1,0.8,1.8,0.9c0.7,0.1,1.4,0.1,2-0.2c0.6-0.3,1.2-0.7,1.5-1.3c0.4-0.6,0.6-1.2,0.6-1.9c0-0.9-0.4-1.8-1-2.4
	C11.8,4.4,10.9,4.1,10,4.1z M10,9.1C9.7,9.1,9.4,9,9.1,8.8C8.9,8.6,8.7,8.4,8.6,8.1C8.4,7.8,8.4,7.5,8.5,7.2
	c0.1-0.3,0.2-0.6,0.4-0.8C9.1,6.2,9.4,6,9.7,6c0.3-0.1,0.6,0,0.9,0.1c0.3,0.1,0.5,0.3,0.7,0.6c0.2,0.3,0.3,0.6,0.3,0.9
	c0,0.4-0.2,0.8-0.5,1.1C10.8,8.9,10.4,9.1,10,9.1z"/>
</svg>
